packages/synapse-interface/assets/chains/harmony.svg

<svg fill="none" height="48" viewBox="0 0 48 48" width="48" xmlns="http://www.w3.org/2000/svg" xmlns:xlink="http://www.w3.org/1999/xlink"><linearGradient id="a" gradientUnits="userSpaceOnUse" x1="48" x2="0" y1="0" y2="48"><stop offset="0" stop-color="#6cfbbb"/><stop offset="1" stop-color="#05b3e6"/></linearGradient><rect fill="url(#a)" height="48" rx="24" width="48"/><path d="m30.8315 33.9999c-1.7647 0-3.2002-1.4355-3.2002-3.2002v-5.8917c2.9138-.2253 5.0218-.8425 6.4004-1.8503v7.742c0 1.7647-1.4356 3.2002-3.2002 3.2002zm-3.2002-16.7998c0-1.7646 1.4355-3.2002 3.2002-3.2002 1.7646 0 3.2002 1.4356 3.2002 3.2002v1.9333c-.0313.6799-.1788 1.3784-.7774 1.9798-.7006.7029-2.2518 1.4961-5.623 1.781zm-7.2206 13.5996c0 1.7647-1.4356 3.2002-3.2003 3.2002s-3.2002-1.4355-3.2002-3.2002v-1.7941c.0321-.6535.1891-1.3662.836-2.0174.7277-.7337 2.2788-1.558 5.5645-1.8663zm-3.2003-16.7998c1.7647 0 3.2003 1.4356 3.2003 3.2002v5.9096c-2.892.2482-5.0016.9068-6.4005 1.9786v-7.8882c0-1.7646 1.4355-3.2002 3.2002-3.2002zm18.8261 4.3399-.0048-.3399v-.7998c0-2.8671-2.333-5.2001-5.2002-5.2001s-5.2002 2.333-5.2002 5.2001v5.7902c-.5056.0102-2.6923.0074-3.2207.0195v-5.8097c0-2.8671-2.333-5.2001-5.2002-5.2001s-5.2002 2.333-5.2002 5.2001v11.7062c-.0163.3176-.0095.6014-.0039.8349l.0039.2588v.7997c0 2.8672 2.333 5.2003 5.2002 5.2003s5.2002-2.3331 5.2002-5.2003v-5.7861c.511-.0125 2.6986-.0087 3.2207-.0179v5.804c0 2.8672 2.333 5.2003 5.2002 5.2003s5.2002-2.3331 5.2002-5.2003v-11.558c.0166-.3344.0106-.6406.0048-.9019z" fill="#fff"/></svg>

<svg width="48" height="48" viewBox="0 0 48 48" fill="none" xmlns="http://www.w3.org/2000/svg">
<rect width="48" height="48" rx="24" fill="url(#paint0_linear_1275_22504)"/>
<path d="M30.8315 33.9999C29.0668 33.9999 27.6313 32.5644 27.6313 30.7997V24.908C30.5451 24.6827 32.6531 24.0655 34.0317 23.0577V30.7997C34.0317 32.5644 32.5961 33.9999 30.8315 33.9999ZM27.6313 17.2001C27.6313 15.4355 29.0668 13.9999 30.8315 13.9999C32.5961 13.9999 34.0317 15.4355 34.0317 17.2001V19.1334C34.0004 19.8133 33.8529 20.5118 33.2543 21.1132C32.5537 21.8161 31.0025 22.6093 27.6313 22.8942V17.2001ZM20.4107 30.7997C20.4107 32.5644 18.9751 33.9999 17.2104 33.9999C15.4457 33.9999 14.0102 32.5644 14.0102 30.7997V29.0056C14.0423 28.3521 14.1993 27.6394 14.8462 26.9882C15.5739 26.2545 17.125 25.4302 20.4107 25.1219V30.7997ZM17.2104 13.9999C18.9751 13.9999 20.4107 15.4355 20.4107 17.2001V23.1097C17.5187 23.3579 15.4091 24.0165 14.0102 25.0883V17.2001C14.0102 15.4355 15.4457 13.9999 17.2104 13.9999ZM36.0365 18.3398L36.0317 17.9999V17.2001C36.0317 14.333 33.6987 12 30.8315 12C27.9643 12 25.6313 14.333 25.6313 17.2001V22.9903C25.1257 23.0005 22.939 22.9977 22.4106 23.0098V17.2001C22.4106 14.333 20.0776 12 17.2104 12C14.3432 12 12.0102 14.333 12.0102 17.2001V28.9063C11.9939 29.2239 12.0007 29.5077 12.0063 29.7412L12.0102 30V30.7997C12.0102 33.6669 14.3432 36 17.2104 36C20.0776 36 22.4106 33.6669 22.4106 30.7997V25.0136C22.9216 25.0011 25.1092 25.0049 25.6313 24.9957V30.7997C25.6313 33.6669 27.9643 36 30.8315 36C33.6987 36 36.0317 33.6669 36.0317 30.7997V19.2417C36.0483 18.9073 36.0423 18.6011 36.0365 18.3398Z" fill="white"/>
<defs>
<linearGradient id="paint0_linear_1275_22504" x1="48" y1="-2.86102e-06" x2="2.86102e-06" y2="48" gradientUnits="userSpaceOnUse">
<stop stop-color="#6CFBBB"/>
<stop offset="1" stop-color="#05B3E6"/>
</linearGradient>
</defs>
</svg>
